X: 39827
T: Thin Ice
R: slip jig
M: 9/8
K: Gmajor
[M:6/8]dBd cAc|[M:4/4]B3A Bcd2|[M:9/8] edc BAG FGA|[M:3/4] D2 "Stomp !"z2"""Stomp!"z2|
[M:6/8]dBd cAc|[M:4/4]B3A Bcd2|[M:9/8] edc BAG DGF|[M:3/4] G2 "Stomp !"z2"""Stomp!"z2:|
[M:6/8]cAc BGB|[M:4/4]A3G ABc2|[M:6/8]dBd cAc|[M:4/4]B3A Bcd2|
[M:6/8] dBd gfe|[M:4/4]d3e dcB2|[M:9/8] edc BAG DGF|[M:3/4] G2 "Stomp !"z2"""Stomp!"z2:|

